!!!!SEGMENT: pl-cz--iii-594--001-005_rzepko-adolf--missa-benedictus.krn
!!!cenid: 18xx:1043
!!!COM: Rzepko, Adolf
!!!COM-rismID: pe30020315
!!!CDT: 1825-1892
!!!CNT: Polish
!!!OPR: Missa
!!!OTL: Benedictus
!!!OMV: 005
!!!PDT:
!!!AGN: Sacred; Mass
!!!SMS-siglum: PL-CZ
!!!SMS-shelfmark: III-594
!!!SMS-shelfwork: 001-005 M
!!!SMS-variant:
!!!SMS-altvar:
!!!NIFC-rismSourceID: 300001136
!!!NIFC-rismChildID: 300001136
!!!NIFC-islandoraID:
!!!URL-pdf-islandora:
!!!URL-scan:
!!!IIIF:
!!!ONB-nifc: UWAGA: części Mszy: Kyrie, Gloria, Credo, Sanctus, Benedictus, Agnus
!!!AIN: 5 empty 1 flt 1 organ 2 violn
!!!key:
**kern	**fba	**dynam	**kern	**dynam	**kern	**dynam	**kern	**dynam	**kern	**text	**kern	**kern	**kern	**dynam	**kern	**dynam
*part9	*part9	*part9	*part8	*part8	*part7	*part7	*part6	*part6	*part5	*part5	*part4	*part3	*part2	*part2	*part1	*part1
*staff9	*	*	*staff8	*	*staff7	*	*staff6	*	*staff5	*staff5	*staff4	*staff3	*staff2	*	*staff1	*
*Iorgan	*	*	*Iempty	*	*Ivioln	*	*Ivioln	*	*Iempty	*	*Iempty	*Iempty	*Iempty	*	*Iflt	*
*I"Organo	*	*	*I"Violino in F	*	*I"Violino 2do	*	*I"Violino 1o	*	*I"Sopran._	*	*I"Clarino II in C.	*I"Clarino 1mo in C	*I"Clarinetto in C.	*	*I"Flauto	*
*I'org	*	*	*I'vl in F	*	*I'vl 2	*	*I'vl 1	*	*I'S	*	*I'clar 2	*I'clar 1	*I'cl	*	*I'fl	*
*ICklav	*	*	*ICstr	*	*ICstr	*	*ICstr	*	*ICvox	*	*ICbras	*ICbras	*ICww	*	*ICww	*
*clefF4	*	*	*clefG2	*	*clefG2	*	*clefG2	*	*clefC1	*	*clefG2	*clefG2	*clefG2	*	*clefG2	*
*	*	*	*ITrd4c7	*	*	*	*	*	*	*	*	*	*	*	*	*
*k[f#]	*	*	*k[f#]	*	*k[f#]	*	*k[f#]	*	*k[f#]	*	*k[f#]	*k[f#]	*k[f#]	*	*k[f#]	*
*G:	*	*	*G:	*	*G:	*	*G:	*	*G:	*	*G:	*G:	*G:	*	*G:	*
*M4/4	*	*	*M4/4	*	*M4/4	*	*M4/4	*	*M4/4	*	*M4/4	*M4/4	*M4/4	*	*M4/4	*
*met(c)	*	*	*met(c)	*	*met(c)	*	*met(c)	*	*met(c)	*	*met(c)	*met(c)	*met(c)	*	*met(c)	*
!	!	!	!	!	!	!	!	!	!	!	!	!	!	!	!LO:TX:t=P:problem=4,8,16 left, middle or right&colon; global	!
!LO:TX:a:rj:i:t=Andte.	!	!	!LO:TX:a:rj:i:t=And(an)te	!	!LO:TX:a:rj:i:t=Andante	!	!LO:TX:a:rj:i:t=Solo	!	!	!	!	!	!LO:TX:a:rj:i:t=Benedictus	!	!LO:TX:a:rj:i:t=Benedictus	!
!LO:TX:a:rj:i:t=Benedic&colon;	!	!	!LO:TX:a:rj:i:t=Benedic\ntus	!LO:DY:b:rj	!LO:TX:a:rj:i:t=Benedic\ntus	!	!LO:TX:a:rj:i:t=Bene\ndictus	!	!LO:TX:a:rj:i:t=Bene\ndictus	!	!LO:TX:a:rj:i:t=Benedictus Tacet	!LO:TX:a:rj:i:t=Benedictus Tacet&colon;	!LO:TX:a:rj:i:t=And(an)te	!	!LO:TX:a:rj:i:t=Andto	!
4r	.	.	4r	mf	4r	.	8.dd\L	.	4r	.	4ryy	4ryy	4r	.	4r	.
.	.	.	.	.	.	.	16dd\Jk	.	.	.	.	.	.	.	.	.
=1	=1	=1	=1	=1	=1	=1	=1	=1	=1	=1	=1	=1	=1	=1	=1	=1
*2\right	*	*	*	*	*	*	*	*	*	*	*	*	*	*	*	*
!LO:TX:a:rj:i:t=tasto Solo	!	!	!	!	!	!	!	!	!LO:TX:a:rj:t=10	!	!	!	!LO:TX:a:rj:t=9	!	!LO:TX:a:rj:t=9	!
2G\	.	.	2g/ 2G/	.	2b/ 2d/	.	4.bb\	.	00r	.	1ryy	1ryy	00r	.	00r	.
.	.	.	.	.	.	.	8bb\	.	.	.	.	.	.	.	.	.
2D\	.	.	2f#/ 2A/	.	2cc/ 2d/	.	8ddd\L	.	.	.	.	.	.	.	.	.
.	.	.	.	.	.	.	8ccc\	.	.	.	.	.	.	.	.	.
.	.	.	.	.	.	.	8bb\	.	.	.	.	.	.	.	.	.
.	.	.	.	.	.	.	8aa\J	.	.	.	.	.	.	.	.	.
!LO:LB:g=original	!	!	!	!	!	!	!	!	!	!	!	!	!	!	!	!
=2	=2	=2	=2	=2	=2	=2	=2	=2	=2	=2	=2	=2	=2	=2	=2	=2
*	*	*	*	*	*	*	*2\right	*	*	*	*	*	*	*	*	*
2D\	.	.	2d/ 2c/	.	2a/ 2f#/	.	2aa\	.	.	.	1ryy	1ryy	.	.	.	.
2G\	.	.	4d/ 4B/	.	4g/ 4G/	.	4gg\	.	.	.	.	.	.	.	.	.
.	.	.	4r	.	4r	.	8r	.	.	.	.	.	.	.	.	.
.	.	.	.	.	.	.	8gg\	.	.	.	.	.	.	.	.	.
!	!	!	!	!	!	!	!LO:LB:g=original	!	!	!	!	!	!	!	!	!
=3	=3	=3	=3	=3	=3	=3	=3	=3	=3	=3	=3	=3	=3	=3	=3	=3
2E\	.	.	2c/	.	2g/ 2G/	.	4gg\	.	.	.	1ryy	1ryy	.	.	.	.
.	.	.	.	.	.	.	4ccc\	.	.	.	.	.	.	.	.	.
2C\	.	.	2c/	.	2e/ 2G/	.	16r	.	.	.	.	.	.	.	.	.
.	.	.	.	.	.	.	((16ccc\LL	.	.	.	.	.	.	.	.	.
.	.	.	.	.	.	.	16bb\)	.	.	.	.	.	.	.	.	.
.	.	.	.	.	.	.	16ccc\JJ	.	.	.	.	.	.	.	.	.
.	.	.	.	.	.	.	16bb\LL	.	.	.	.	.	.	.	.	.
.	.	.	.	.	.	.	16ccc\	.	.	.	.	.	.	.	.	.
.	.	.	.	.	.	.	16ddd\	.	.	.	.	.	.	.	.	.
.	.	.	.	.	.	.	16eee\JJ)	.	.	.	.	.	.	.	.	.
=4	=4	=4	=4	=4	=4	=4	=4	=4	=4	=4	=4	=4	=4	=4	=4	=4
2G\	.	.	2c#X/	.	2g/ 2B-X/	.	(4.ccc#X\	.	.	.	1ryy	1ryy	.	.	.	.
.	.	.	.	.	.	.	16ddd\LL	.	.	.	.	.	.	.	.	.
.	.	.	.	.	.	.	16eee\JJ)	.	.	.	.	.	.	.	.	.
!	!	!	!	!	!	!	!LO:TX:t=P:problem=klamra łukowa	!	!	!	!	!	!	!	!	!
2G\	.	.	2d/	.	2g/ 2Bn/	.	12ddd\L	.	.	.	.	.	.	.	.	.
.	.	.	.	.	.	.	12dd\	.	.	.	.	.	.	.	.	.
.	.	.	.	.	.	.	12ee\J	.	.	.	.	.	.	.	.	.
!	!	!	!	!	!	!	!LO:TX:t=P:problem=klamra łukowa	!	!	!	!	!	!	!	!	!
.	.	.	.	.	.	.	12ff#\L	.	.	.	.	.	.	.	.	.
.	.	.	.	.	.	.	12gg\	.	.	.	.	.	.	.	.	.
.	.	.	.	.	.	.	12aa\J	.	.	.	.	.	.	.	.	.
=5	=5	=5	=5	=5	=5	=5	=5	=5	=5	=5	=5	=5	=5	=5	=5	=5
*	*	*	*	*	*^	*	*	*	*	*	*	*	*	*	*	*
2G\	.	.	2g/ 2G/	.	2b/ 2d/	2ryy	.	4.bb\	.	00r	.	1ryy	1ryy	00r	.	00r	.
.	.	.	.	.	.	.	.	8bb\	.	.	.	.	.	.	.	.	.
4D\	.	.	2f#/ 2A/	.	4cc/ 4d/	4ryy	.	8eee\L	.	.	.	.	.	.	.	.	.
.	.	.	.	.	.	.	.	8ddd\	.	.	.	.	.	.	.	.	.
8D\L	.	.	.	.	4a/	8d\L	.	8ccc\	.	.	.	.	.	.	.	.	.
8D#X\J	.	.	.	.	.	8f#\J	.	8ff#\J	.	.	.	.	.	.	.	.	.
*	*	*	*	*	*v	*v	*	*	*	*	*	*	*	*	*	*	*
=6	=6	=6	=6	=6	=6	=6	=6	=6	=6	=6	=6	=6	=6	=6	=6	=6
2D#X\	.	.	2c/	.	2a/ 2f#/	.	2aa\	.	.	.	1ryy	1ryy	.	.	.	.
2E\	.	.	4e/ 4B/	.	4g/	.	4gg\	.	.	.	.	.	.	.	.	.
.	.	.	4r	.	4r	.	8r	.	.	.	.	.	.	.	.	.
.	.	.	.	.	.	.	8gg\	.	.	.	.	.	.	.	.	.
=7	=7	=7	=7	=7	=7	=7	=7	=7	=7	=7	=7	=7	=7	=7	=7	=7
2AA/	.	.	8r	.	8r	.	2ggg\	.	.	.	1ryy	1ryy	.	.	.	.
*	*	*	*tremolo	*	*tremolo	*	*	*	*	*	*	*	*	*	*	*
.	.	.	8c#X/L	.	8g/ 8A/L	.	.	.	.	.	.	.	.	.	.	.
.	.	.	8c#X/	.	8g/ 8A/	.	.	.	.	.	.	.	.	.	.	.
.	.	.	8c#X/J	.	8g/ 8A/J	.	.	.	.	.	.	.	.	.	.	.
2C#X/	.	.	8r	.	8r	.	4.ggg\	.	.	.	.	.	.	.	.	.
.	.	.	8e/L	.	8g/ 8A/L	.	.	.	.	.	.	.	.	.	.	.
.	.	.	8e/	.	8g/ 8A/	.	.	.	.	.	.	.	.	.	.	.
.	.	.	8e/J	.	8g/ 8A/J	.	8ggg\	.	.	.	.	.	.	.	.	.
*	*	*	*Xtremolo	*	*Xtremolo	*	*	*	*	*	*	*	*	*	*	*
=8	=8	=8	=8	=8	=8	=8	=8	=8	=8	=8	=8	=8	=8	=8	=8	=8
2D\	.	.	2d/	.	2f#/ 2A/	.	(16ggg\LL	.	.	.	1ryy	1ryy	.	.	.	.
.	.	.	.	.	.	.	16fff#\	.	.	.	.	.	.	.	.	.
.	.	.	.	.	.	.	16eee\	.	.	.	.	.	.	.	.	.
.	.	.	.	.	.	.	16ddd\JJ	.	.	.	.	.	.	.	.	.
.	.	.	.	.	.	.	16ccc#X\LL	.	.	.	.	.	.	.	.	.
.	.	.	.	.	.	.	16ddd\	.	.	.	.	.	.	.	.	.
.	.	.	.	.	.	.	16eee\	.	.	.	.	.	.	.	.	.
.	.	.	.	.	.	.	16ddd\JJ	.	.	.	.	.	.	.	.	.
*	*	*	*2\right	*	*	*	*	*	*	*	*	*	*	*	*	*
2G/ 2GG/	.	.	2e\	.	2g/ 2B/	.	16ccc#\LL	.	.	.	.	.	.	.	.	.
.	.	.	.	.	.	.	16bb\	.	.	.	.	.	.	.	.	.
.	.	.	.	.	.	.	16aa\	.	.	.	.	.	.	.	.	.
.	.	.	.	.	.	.	16gg\JJ	.	.	.	.	.	.	.	.	.
.	.	.	.	.	.	.	16ff#\LL	.	.	.	.	.	.	.	.	.
.	.	.	.	.	.	.	16ee\	.	.	.	.	.	.	.	.	.
.	.	.	.	.	.	.	16gg\	.	.	.	.	.	.	.	.	.
.	.	.	.	.	.	.	16bb\JJ	.	.	.	.	.	.	.	.	.
=9	=9	=9	=9	=9	=9	=9	=9	=9	=9	=9	=9	=9	=9	=9	=9	=9
2A/ 2AA/	.	.	8r	.	8r	.	4bb\)	.	0r	.	1ryy	1ryy	1r	.	1r	.
*	*	*	*tremolo	*	*tremolo	*	*	*	*	*	*	*	*	*	*	*
.	.	.	8d/L	.	8f#/ 8A/L	.	.	.	.	.	.	.	.	.	.	.
.	.	.	8d/	.	8f#/ 8A/	.	8.aa\L	.	.	.	.	.	.	.	.	.
.	.	.	8d/J	.	8f#/ 8A/J	.	.	.	.	.	.	.	.	.	.	.
.	.	.	.	.	.	.	16aa\Jk	.	.	.	.	.	.	.	.	.
2A/ 2AA/	.	.	8r	.	8r	.	4.bb-X\	.	.	.	.	.	.	.	.	.
.	.	.	8c#X/L	.	8g/ 8A/L	.	.	.	.	.	.	.	.	.	.	.
.	.	.	8c#X/	.	8g/ 8A/	.	.	.	.	.	.	.	.	.	.	.
.	.	.	8c#X/J	.	8g/ 8A/J	.	8aa\	.	.	.	.	.	.	.	.	.
!	!	!	!	!	!	!	!LO:LB:g=original	!	!	!	!	!	!	!	!	!
=10	=10	=10	=10	=10	=10	=10	=10	=10	=10	=10	=10	=10	=10	=10	=10	=10
!	!	!	!	!	!	!	!	!	!	!	!	!	!	!	!	!LO:DY:b:rj
2D\	.	.	8r	.	8r	.	4.dd\	.	.	.	1ryy	1ryy	4r	.	4r	ff
.	.	.	8d/L	.	8f#/ 8A/L	.	.	.	.	.	.	.	.	.	.	.
.	.	.	8d/	.	8f#/ 8A/	.	.	.	.	.	.	.	4dd\	.	4ddd\	.
.	.	.	8d/J	.	8f#/ 8A/J	.	16ff#\LL	.	.	.	.	.	.	.	.	.
.	.	.	.	.	.	.	16ee\JJ	.	.	.	.	.	.	.	.	.
*	*	*	*Xtremolo	*	*Xtremolo	*	*	*	*	*	*	*	*	*	*	*
!	!	!LO:DY:b:rj	!	!	!	!	!	!	!	!	!	!	!	!	!	!
8D\L	.	f	8d/L	.	8f#/ 8A/	.	8dd\L	.	.	.	.	.	4ee\	.	4ccc#X\	.
!	!	!	!	!LO:DY:b:rj	!	!LO:DY:b:rj	!	!	!	!	!	!	!	!	!	!
8D\	.	.	8f#/ 8A/	f	8ff#\L 8a\	f	8ddd\ 8dd\	.	.	.	.	.	.	.	.	.
8E\	.	.	8A/	.	8gg\ 8a\	.	8ccc#X\	.	.	.	.	.	4ff#\	.	4cccn\	.
8F#X\J	.	.	8f#/J 8A/	.	8cc\J 8e\	.	8cccn\J	.	.	.	.	.	.	.	.	.
!	!	!	!	!	!	!	!	!	!LO:LB:g=original	!	!	!	!	!	!	!
=11	=11	=11	=11	=11	=11	=11	=11	=11	=11	=11	=11	=11	=11	=11	=11	=11
*	*	*	*tremolo	*	*tremolo	*	*	*	*	*	*	*	*	*	*	*
!	!	!	!	!LO:DY:b:rj	!	!LO:DY:b:rj	!LO:TX:a:rj:t=9	!	!LO:TX:a:rj:i:t=Solo	!	!	!	!LO:TX:a:rj:t=22	!	!LO:TX:a:rj:t=29	!
2G\	.	.	8r	p	8r	p	00r	.	4b\	Be-	1ryy	1ryy	00r	.	1r	.
.	.	.	8g/ 8G/L	.	8g/L	.	.	.	.	.	.	.	.	.	.	.
!	!	!	!	!	!	!	!	!	!LO:N:vis=8	!	!	!	!	!	!	!
.	.	.	8g/ 8G/	.	8g/	.	.	.	4b\	-ne-	.	.	.	.	.	.
.	.	.	8g/ 8G/J	.	8g/J	.	.	.	.	.	.	.	.	.	.	.
2D\	.	.	8r	.	8r	.	.	.	(8dd\L	-di-	.	.	.	.	.	.
.	.	.	8f#/ 8A/L	.	8a/ 8f#/L	.	.	.	8cc\J)	.	.	.	.	.	.	.
.	.	.	8f#/ 8A/	.	8a/ 8f#/	.	.	.	8b\	-ctus	.	.	.	.	.	.
.	.	.	8f#/ 8A/J	.	8a/ 8f#/J	.	.	.	8a\	qui	.	.	.	.	.	.
=12	=12	=12	=12	=12	=12	=12	=12	=12	=12	=12	=12	=12	=12	=12	=12	=12
2D\	.	.	8r	.	8r	.	.	.	[4a/	ve-	1ryy	1ryy	.	.	1r	.
.	.	.	8d/ 8c/L	.	8a/ 8f#/L	.	.	.	.	.	.	.	.	.	.	.
.	.	.	8d/ 8c/	.	8a/ 8f#/	.	.	.	16a/LL]	.	.	.	.	.	.	.
.	.	.	.	.	.	.	.	.	16g/	.	.	.	.	.	.	.
.	.	.	8d/ 8c/J	.	8a/ 8f#/J	.	.	.	16b/	.	.	.	.	.	.	.
.	.	.	.	.	.	.	.	.	16a/JJ	.	.	.	.	.	.	.
2G\	.	.	8r	.	8r	.	.	.	4g/	-nit	.	.	.	.	.	.
.	.	.	8d/ 8B/L	.	8g/L	.	.	.	.	.	.	.	.	.	.	.
.	.	.	8d/ 8B/	.	8g/	.	.	.	8r	.	.	.	.	.	.	.
.	.	.	8d/ 8B/J	.	8g/J	.	.	.	8g/	qui	.	.	.	.	.	.
=13	=13	=13	=13	=13	=13	=13	=13	=13	=13	=13	=13	=13	=13	=13	=13	=13
2E\	.	.	8r	.	8r	.	.	.	4g\	ve-	1ryy	1ryy	.	.	1r	.
.	.	.	8c/L	.	8g/ 8G/L	.	.	.	.	.	.	.	.	.	.	.
.	.	.	8c/	.	8g/ 8G/	.	.	.	4cc\	-nit	.	.	.	.	.	.
.	.	.	8c/J	.	8g/ 8G/J	.	.	.	.	.	.	.	.	.	.	.
2C/	.	.	8r	.	8r	.	.	.	8r	.	.	.	.	.	.	.
.	.	.	8c/L	.	8e/ 8G/L	.	.	.	(8cc\L	qui	.	.	.	.	.	.
.	.	.	8c/	.	8e/ 8G/	.	.	.	8dd\	.	.	.	.	.	.	.
.	.	.	8c/J	.	8e/ 8G/J	.	.	.	8ee\J)	.	.	.	.	.	.	.
!	!	!	!	!	!LO:LB:g=original	!	!	!	!	!	!	!	!	!	!	!
=14	=14	=14	=14	=14	=14	=14	=14	=14	=14	=14	=14	=14	=14	=14	=14	=14
2G\	.	.	8r	.	8r	.	.	.	(4.cc#X\	ve-	1ryy	1ryy	.	.	1r	.
.	.	.	8c#X/L	.	8g/ 8B-X/L	.	.	.	.	.	.	.	.	.	.	.
.	.	.	8c#X/	.	8g/ 8B-X/	.	.	.	.	.	.	.	.	.	.	.
.	.	.	8c#X/J	.	8g/ 8B-X/J	.	.	.	16dd\LL	.	.	.	.	.	.	.
.	.	.	.	.	.	.	.	.	16ee\JJ)	.	.	.	.	.	.	.
2G\	.	.	8r	.	8r	.	.	.	4dd\	-nit	.	.	.	.	.	.
.	.	.	8d/L	.	8g/ 8Bn/L	.	.	.	.	.	.	.	.	.	.	.
.	.	.	8d/	.	8g/ 8Bn/	.	.	.	4r	.	.	.	.	.	.	.
.	.	.	8d/J	.	8g/ 8Bn/J	.	.	.	.	.	.	.	.	.	.	.
!	!	!	!LO:LB:g=original	!	!	!	!	!	!	!	!	!	!	!	!	!
=15	=15	=15	=15	=15	=15	=15	=15	=15	=15	=15	=15	=15	=15	=15	=15	=15
2G\	.	.	8r	.	8r	.	00r	.	4.b\	Be-	1ryy	1ryy	00r	.	1r	.
.	.	.	8g/ 8G/L	.	8g/L	.	.	.	.	.	.	.	.	.	.	.
.	.	.	8g/ 8G/	.	8g/	.	.	.	.	.	.	.	.	.	.	.
.	.	.	8g/ 8G/J	.	8g/J	.	.	.	8b\	-ne-	.	.	.	.	.	.
*	*	*	*Xtremolo	*	*	*	*	*	*	*	*	*	*	*	*	*
4D\	.	.	8r	.	8r	.	.	.	(8ee\L	-di-	.	.	.	.	.	.
.	.	.	8f#/ 8A/	.	8a/ 8d/	.	.	.	8dd\J)	.	.	.	.	.	.	.
4D#X\	.	.	8r	.	8r	.	.	.	8cc\	-ctus	.	.	.	.	.	.
.	.	.	8f#/ 8A/	.	8a/ 8f#/	.	.	.	8a\	qui	.	.	.	.	.	.
=16	=16	=16	=16	=16	=16	=16	=16	=16	=16	=16	=16	=16	=16	=16	=16	=16
2D\	.	.	8r	.	8r	.	.	.	[4a/	ve-	1ryy	1ryy	.	.	1r	.
*	*	*	*tremolo	*	*	*	*	*	*	*	*	*	*	*	*	*
.	.	.	8c/L	.	8a/ 8f#/L	.	.	.	.	.	.	.	.	.	.	.
.	.	.	8c/	.	8a/ 8f#/	.	.	.	16a/LL]	.	.	.	.	.	.	.
.	.	.	.	.	.	.	.	.	16g/	.	.	.	.	.	.	.
.	.	.	8c/J	.	8a/ 8f#/J	.	.	.	16b/	.	.	.	.	.	.	.
.	.	.	.	.	.	.	.	.	16a/JJ	.	.	.	.	.	.	.
2E\	.	.	8r	.	8r	.	.	.	4g/	-nit	.	.	.	.	.	.
.	.	.	8e/ 8B/L	.	8g/ 8B/L	.	.	.	.	.	.	.	.	.	.	.
.	.	.	8e/ 8B/	.	8g/ 8B/	.	.	.	8r	.	.	.	.	.	.	.
.	.	.	8e/ 8B/J	.	8g/ 8B/J	.	.	.	8g/	in	.	.	.	.	.	.
=17	=17	=17	=17	=17	=17	=17	=17	=17	=17	=17	=17	=17	=17	=17	=17	=17
*	*	*	*	*	*	*	*	*	*2\right	*	*	*	*	*	*	*
2AA/	.	.	8r	.	8r	.	.	.	2gg\	no-	1ryy	1ryy	.	.	1r	.
.	.	.	8c#X/L	.	8g/ 8A/L	.	.	.	.	.	.	.	.	.	.	.
.	.	.	8c#X/	.	8g/ 8A/	.	.	.	.	.	.	.	.	.	.	.
.	.	.	8c#X/J	.	8g/ 8A/J	.	.	.	.	.	.	.	.	.	.	.
2C#X/	.	.	8r	.	8r	.	.	.	4.gg\	-mi-	.	.	.	.	.	.
.	.	.	8e\L	.	8g/ 8A/L	.	.	.	.	.	.	.	.	.	.	.
.	.	.	8e\	.	8g/ 8A/	.	.	.	.	.	.	.	.	.	.	.
.	.	.	8e\J	.	8g/ 8A/J	.	.	.	8gg\	-ne	.	.	.	.	.	.
*	*	*	*Xtremolo	*	*Xtremolo	*	*	*	*	*	*	*	*	*	*	*
!	!	!	!	!	!	!	!	!	!LO:LB:g=original	!	!	!	!	!	!	!
=18	=18	=18	=18	=18	=18	=18	=18	=18	=18	=18	=18	=18	=18	=18	=18	=18
2D\	.	.	2d/	.	2f#/ 2A/	.	.	.	(16gg\LL	Do-	1ryy	1ryy	.	.	1r	.
.	.	.	.	.	.	.	.	.	16ff#\	.	.	.	.	.	.	.
.	.	.	.	.	.	.	.	.	16ee\	.	.	.	.	.	.	.
.	.	.	.	.	.	.	.	.	16dd\JJ	.	.	.	.	.	.	.
.	.	.	.	.	.	.	.	.	16cc#X\LL	.	.	.	.	.	.	.
.	.	.	.	.	.	.	.	.	16dd\	.	.	.	.	.	.	.
.	.	.	.	.	.	.	.	.	16ee\	.	.	.	.	.	.	.
.	.	.	.	.	.	.	.	.	16dd\JJ)	.	.	.	.	.	.	.
2G\ 2GG\	.	.	2e/	.	2g/ 2B/	.	.	.	(16cc#\LL	-mi-	.	.	.	.	.	.
.	.	.	.	.	.	.	.	.	16b\	.	.	.	.	.	.	.
.	.	.	.	.	.	.	.	.	16a\	.	.	.	.	.	.	.
.	.	.	.	.	.	.	.	.	16g\JJ)	.	.	.	.	.	.	.
.	.	.	.	.	.	.	.	.	(16f#/LL	-ni	.	.	.	.	.	.
.	.	.	.	.	.	.	.	.	16e/	.	.	.	.	.	.	.
.	.	.	.	.	.	.	.	.	16g/	.	.	.	.	.	.	.
.	.	.	.	.	.	.	.	.	16b/JJ)	.	.	.	.	.	.	.
=19	=19	=19	=19	=19	=19	=19	=19	=19	=19	=19	=19	=19	=19	=19	=19	=19
2A/ 2AA/	.	.	8r	.	8r	.	1r	.	4b\	no-	1ryy	1ryy	00r	.	1r	.
*	*	*	*tremolo	*	*tremolo	*	*	*	*	*	*	*	*	*	*	*
.	.	.	8d/L	.	8f#/ 8A/L	.	.	.	.	.	.	.	.	.	.	.
.	.	.	8d/	.	8f#/ 8A/	.	.	.	8.a\	-mi-	.	.	.	.	.	.
.	.	.	8d/J	.	8f#/ 8A/J	.	.	.	.	.	.	.	.	.	.	.
.	.	.	.	.	.	.	.	.	16a\	-ne	.	.	.	.	.	.
2A/ 2AA/	.	.	8r	.	8r	.	.	.	4.b-X\	Do-	.	.	.	.	.	.
.	.	.	8c#X/L	.	8g/ 8A/L	.	.	.	.	.	.	.	.	.	.	.
.	.	.	8c#X/	.	8g/ 8A/	.	.	.	.	.	.	.	.	.	.	.
.	.	.	8c#X/J	.	8g/ 8A/J	.	.	.	8a\	-mi-	.	.	.	.	.	.
=20	=20	=20	=20	=20	=20	=20	=20	=20	=20	=20	=20	=20	=20	=20	=20	=20
2D\	.	.	8r	.	8r	.	2r	.	4d/	-ni	1ryy	1ryy	.	.	1r	.
.	.	.	8d/L	.	8f#/ 8A/L	.	.	.	.	.	.	.	.	.	.	.
.	.	.	8d/	.	8f#/ 8A/	.	.	.	4r	.	.	.	.	.	.	.
.	.	.	8d/J	.	8f#/ 8A/J	.	.	.	.	.	.	.	.	.	.	.
4D\	.	.	8r	.	8r	.	4r	.	2r	.	.	.	.	.	.	.
.	.	.	8d/	.	8f#/ 8A/	.	.	.	.	.	.	.	.	.	.	.
4BB/	.	.	8r	.	8r	.	8.ee\L	.	.	.	.	.	.	.	.	.
.	.	.	8d/ 8B/	.	8e/ 8G#X/	.	.	.	.	.	.	.	.	.	.	.
.	.	.	.	.	.	.	16ee\Jk	.	.	.	.	.	.	.	.	.
!LO:LB:g=original	!	!	!	!	!	!	!	!	!	!	!	!	!	!	!	!
=21	=21	=21	=21	=21	=21	=21	=21	=21	=21	=21	=21	=21	=21	=21	=21	=21
!	!	!	!	!	!	!	!	!	!LO:TX:a:rj:t=12	!	!	!	!	!	!	!
2AA/	.	.	8r	.	8r	.	4.aa\	.	00r	.	1ryy	1ryy	.	.	1r	.
.	.	.	8c/L	.	8a/ 8e/L	.	.	.	.	.	.	.	.	.	.	.
.	.	.	8c/	.	8a/ 8e/	.	.	.	.	.	.	.	.	.	.	.
.	.	.	8c/J	.	8a/ 8e/J	.	8aa\	.	.	.	.	.	.	.	.	.
2E\	.	.	8r	.	8r	.	8ccc\L	.	.	.	.	.	.	.	.	.
.	.	.	8e/ 8d/L	.	8g#X/ 8B/L	.	8bb\	.	.	.	.	.	.	.	.	.
.	.	.	8e/ 8d/	.	8g#X/ 8B/	.	8aa\	.	.	.	.	.	.	.	.	.
.	.	.	8e/ 8d/J	.	8g#X/ 8B/J	.	8gg#X\J	.	.	.	.	.	.	.	.	.
=22	=22	=22	=22	=22	=22	=22	=22	=22	=22	=22	=22	=22	=22	=22	=22	=22
2AA/	.	.	8r	.	8r	.	2aa\	.	.	.	1ryy	1ryy	.	.	1r	.
.	.	.	8c/L	.	8a/ 8e/L	.	.	.	.	.	.	.	.	.	.	.
.	.	.	8c/	.	8a/ 8e/	.	.	.	.	.	.	.	.	.	.	.
.	.	.	8c/J	.	8a/ 8e/J	.	.	.	.	.	.	.	.	.	.	.
2A\	.	.	8r	.	8r	.	4ee\	.	.	.	.	.	.	.	.	.
.	.	.	8c/L	.	8a/ 8e/L	.	.	.	.	.	.	.	.	.	.	.
.	.	.	8c/	.	8a/ 8e/	.	(8ee\L	.	.	.	.	.	.	.	.	.
.	.	.	8c/J	.	8a/ 8e/J	.	8eee\J)	.	.	.	.	.	.	.	.	.
*	*	*	*Xtremolo	*	*Xtremolo	*	*	*	*	*	*	*	*	*	*	*
=23	=23	=23	=23	=23	=23	=23	=23	=23	=23	=23	=23	=23	=23	=23	=23	=23
4G#X\	.	.	8r	.	8r	.	8eee\	.	.	.	1ryy	1ryy	00r	.	1r	.
.	.	.	8e\	.	8b/ 8d/	.	4ddd\	.	.	.	.	.	.	.	.	.
4G#\	.	.	8r	.	8r	.	.	.	.	.	.	.	.	.	.	.
.	.	.	8e\	.	8b/ 8d/	.	8bb\	.	.	.	.	.	.	.	.	.
4A\	.	.	8r	.	8r	.	8ddd\	.	.	.	.	.	.	.	.	.
.	.	.	8c/	.	8a/ 8e/	.	4ccc\	.	.	.	.	.	.	.	.	.
4A\	.	.	8r	.	8r	.	.	.	.	.	.	.	.	.	.	.
.	.	.	8c/	.	8a/ 8e/	.	8aa\	.	.	.	.	.	.	.	.	.
=24	=24	=24	=24	=24	=24	=24	=24	=24	=24	=24	=24	=24	=24	=24	=24	=24
2E\	.	.	8r	.	8r	.	2bb\	.	.	.	1ryy	1ryy	.	.	1r	.
*	*	*	*tremolo	*	*tremolo	*	*	*	*	*	*	*	*	*	*	*
.	.	.	8e\L	.	8g#X/ 8B/L	.	.	.	.	.	.	.	.	.	.	.
.	.	.	8e\	.	8g#X/ 8B/	.	.	.	.	.	.	.	.	.	.	.
.	.	.	8e\J	.	8g#X/ 8B/J	.	.	.	.	.	.	.	.	.	.	.
2E\	.	.	8r	.	8r	.	4r	.	.	.	.	.	.	.	.	.
.	.	.	8e\L	.	8g#/ 8B/L	.	.	.	.	.	.	.	.	.	.	.
.	.	.	8e\	.	8g#/ 8B/	.	8.bb\L	.	.	.	.	.	.	.	.	.
.	.	.	8e\J	.	8g#/ 8B/J	.	.	.	.	.	.	.	.	.	.	.
.	.	.	.	.	.	.	16bb\Jk	.	.	.	.	.	.	.	.	.
=25	=25	=25	=25	=25	=25	=25	=25	=25	=25	=25	=25	=25	=25	=25	=25	=25
2D#X\	.	.	8r	.	8r	.	4.ccc#X\	.	00r	.	1ryy	1ryy	.	.	1r	.
.	.	.	8B/L	.	8a/ 8f#X/L	.	.	.	.	.	.	.	.	.	.	.
.	.	.	8B/	.	8a/ 8f#X/	.	.	.	.	.	.	.	.	.	.	.
.	.	.	8B/J	.	8a/ 8f#X/J	.	8bb\	.	.	.	.	.	.	.	.	.
2D#\	.	.	8r	.	8r	.	8ccc#\L	.	.	.	.	.	.	.	.	.
.	.	.	8B/L	.	8a/ 8f#/L	.	8bb\	.	.	.	.	.	.	.	.	.
.	.	.	8B/	.	8a/ 8f#/	.	8ff#\	.	.	.	.	.	.	.	.	.
.	.	.	8B/J	.	8a/ 8f#/J	.	8aa\J	.	.	.	.	.	.	.	.	.
=26	=26	=26	=26	=26	=26	=26	=26	=26	=26	=26	=26	=26	=26	=26	=26	=26
2E\	.	.	8r	.	8r	.	4gg#X\	.	.	.	1ryy	1ryy	.	.	1r	.
.	.	.	8e/ 8B/L	.	8g#X/L	.	.	.	.	.	.	.	.	.	.	.
.	.	.	8e/ 8B/	.	8g#X/	.	4eee\	.	.	.	.	.	.	.	.	.
.	.	.	8e/ 8B/J	.	8g#X/J	.	.	.	.	.	.	.	.	.	.	.
!	!	!	!	!	!LO:LB:g=original	!	!	!	!	!	!	!	!	!	!	!
2E\	.	.	8r	.	8r	.	4bb\	.	.	.	.	.	.	.	.	.
.	.	.	8e/ 8B/L	.	8g#/L	.	.	.	.	.	.	.	.	.	.	.
.	.	.	8e/ 8B/	.	8g#/	.	8.bb\L	.	.	.	.	.	.	.	.	.
.	.	.	8e/ 8B/J	.	8g#/J	.	.	.	.	.	.	.	.	.	.	.
.	.	.	.	.	.	.	16bb\Jk	.	.	.	.	.	.	.	.	.
=27	=27	=27	=27	=27	=27	=27	=27	=27	=27	=27	=27	=27	=27	=27	=27	=27
2D#X\	.	.	8r	.	8r	.	4.ccc#X\	.	.	.	1ryy	1ryy	00r	.	1r	.
.	.	.	8B/L	.	8a/ 8f#X/L	.	.	.	.	.	.	.	.	.	.	.
.	.	.	8B/	.	8a/ 8f#X/	.	.	.	.	.	.	.	.	.	.	.
.	.	.	8B/J	.	8a/ 8f#X/J	.	8bb\	.	.	.	.	.	.	.	.	.
2D#\	.	.	8r	.	8r	.	(16ccc#\LL	.	.	.	.	.	.	.	.	.
.	.	.	.	.	.	.	16bb\	.	.	.	.	.	.	.	.	.
.	.	.	8B/L	.	8a/ 8f#/L	.	16aa#X\	.	.	.	.	.	.	.	.	.
.	.	.	.	.	.	.	16bb\JJ	.	.	.	.	.	.	.	.	.
.	.	.	8B/	.	8a/ 8f#/	.	16ddd#X\LL	.	.	.	.	.	.	.	.	.
.	.	.	.	.	.	.	16ccc#\	.	.	.	.	.	.	.	.	.
.	.	.	8B/J	.	8a/ 8f#/J	.	16bb\	.	.	.	.	.	.	.	.	.
!	!	!	!	!	!	!	!LO:SIC:s:v=16aan	!	!	!	!	!	!	!	!	!
.	.	.	.	.	.	.	16aa#\JJ)	.	.	.	.	.	.	.	.	.
!	!	!	!LO:LB:g=original	!	!	!	!LO:LB:g=original	!	!	!	!	!	!	!	!	!
=28	=28	=28	=28	=28	=28	=28	=28	=28	=28	=28	=28	=28	=28	=28	=28	=28
2E\	.	.	8r	.	8r	.	4gg\	.	.	.	1ryy	1ryy	.	.	1r	.
.	.	.	8e/ 8B/L	.	8g#X/L	.	.	.	.	.	.	.	.	.	.	.
.	.	.	8e/ 8B/	.	8g#X/	.	4gg#X\	.	.	.	.	.	.	.	.	.
.	.	.	8e/ 8B/J	.	8g#X/J	.	.	.	.	.	.	.	.	.	.	.
2E\	.	.	8r	.	8r	.	4r	.	.	.	.	.	.	.	.	.
.	.	.	8e/ 8B/L	.	8g#/L	.	.	.	.	.	.	.	.	.	.	.
.	.	.	8e/ 8B/	.	8g#/	.	8.gg#\L	.	.	.	.	.	.	.	.	.
.	.	.	8e/ 8B/J	.	8g#/J	.	.	.	.	.	.	.	.	.	.	.
.	.	.	.	.	.	.	16gg#\Jk	.	.	.	.	.	.	.	.	.
=29	=29	=29	=29	=29	=29	=29	=29	=29	=29	=29	=29	=29	=29	=29	=29	=29
2C/	.	.	8r	.	8r	.	4.aa\	.	00r	.	1ryy	1ryy	.	.	1r	.
.	.	.	8d#X/L	.	8f#X/L	.	.	.	.	.	.	.	.	.	.	.
.	.	.	8d#X/	.	8f#X/	.	.	.	.	.	.	.	.	.	.	.
.	.	.	8d#X/J	.	8f#X/J	.	8gg#X\	.	.	.	.	.	.	.	.	.
2C/	.	.	8r	.	8r	.	8ggn\L	.	.	.	.	.	.	.	.	.
.	.	.	8d#/L	.	8f#/L	.	8gg#X\J	.	.	.	.	.	.	.	.	.
.	.	.	.	.	.	.	8qbb/	.	.	.	.	.	.	.	.	.
.	.	.	8d#/	.	8f#/	.	8aa\L	.	.	.	.	.	.	.	.	.
.	.	.	8d#/J	.	8f#/J	.	8gg#\J	.	.	.	.	.	.	.	.	.
=30	=30	=30	=30	=30	=30	=30	=30	=30	=30	=30	=30	=30	=30	=30	=30	=30
2C#X/	.	.	8r	.	8r	.	4gg#X\	.	.	.	1ryy	1ryy	.	.	1r	.
.	.	.	8c#X/L	.	8e/ 8G#X/L	.	.	.	.	.	.	.	.	.	.	.
.	.	.	8c#X/	.	8e/ 8G#X/	.	[4eee\	.	.	.	.	.	.	.	.	.
.	.	.	8c#X/J	.	8e/ 8G#X/J	.	.	.	.	.	.	.	.	.	.	.
2AA/	.	.	8r	.	8r	.	8eee\L]	.	.	.	.	.	.	.	.	.
.	.	.	8c#/L	.	8f#/ 8A/L	.	8ccc#X\	.	.	.	.	.	.	.	.	.
.	.	.	8c#/	.	8f#/ 8A/	.	8aa\	.	.	.	.	.	.	.	.	.
.	.	.	8c#/J	.	8f#/ 8A/J	.	8ff#\J	.	.	.	.	.	.	.	.	.
=31	=31	=31	=31	=31	=31	=31	=31	=31	=31	=31	=31	=31	=31	=31	=31	=31
2BB/	.	.	8r	.	8r	.	4.ccc#X\	.	.	.	1ryy	1ryy	0r	.	1r	.
.	.	.	8g#X/ 8B/L	.	8e/L	.	.	.	.	.	.	.	.	.	.	.
.	.	.	8g#X/ 8B/	.	8e/	.	.	.	.	.	.	.	.	.	.	.
.	.	.	8g#X/ 8B/J	.	8e/J	.	8bb\	.	.	.	.	.	.	.	.	.
2BB/	.	.	8r	.	8r	.	8ee#X\L	.	.	.	.	.	.	.	.	.
.	.	.	8d#X/ 8B/L	.	8a/ 8f#/L	.	8ff#\	.	.	.	.	.	.	.	.	.
.	.	.	8d#X/ 8B/	.	8a/ 8f#/	.	8.aa\	.	.	.	.	.	.	.	.	.
.	.	.	8d#X/ 8B/J	.	8a/ 8f#/J	.	.	.	.	.	.	.	.	.	.	.
.	.	.	.	.	.	.	16gg#X\Jk	.	.	.	.	.	.	.	.	.
*	*	*	*	*	*Xtremolo	*	*	*	*	*	*	*	*	*	*	*
=32	=32	=32	=32	=32	=32	=32	=32	=32	=32	=32	=32	=32	=32	=32	=32	=32
4E/ 4EE/	.	.	8r	.	4e/	.	4ee\	.	.	.	1ryy	1ryy	.	.	1r	.
.	.	.	8g#X/ 8B/L	.	.	.	.	.	.	.	.	.	.	.	.	.
4E/ 4EE/	.	.	8g#X/ 8B/	.	4e/	.	4g#X/	.	.	.	.	.	.	.	.	.
.	.	.	8g#X/ 8B/J	.	.	.	.	.	.	.	.	.	.	.	.	.
4E/ 4EE/	.	.	8r	.	4e/	.	4e/	.	.	.	.	.	.	.	.	.
.	.	.	8g#/ 8B/L	.	.	.	.	.	.	.	.	.	.	.	.	.
4r	.	.	8g#/ 8B/	.	4ryy	.	4r	.	.	.	.	.	.	.	.	.
.	.	.	8g#/ 8B/J	.	.	.	.	.	.	.	.	.	.	.	.	.
*	*	*	*Xtremolo	*	*	*	*	*	*	*	*	*	*	*	*	*
=33	=33	=33	=33	=33	=33	=33	=33	=33	=33	=33	=33	=33	=33	=33	=33	=33
!	!	!	!LO:TX:a:rj:i:t=Solo	!	!	!LO:DY:b:rj	!	!LO:DY:b	!	!	!	!	!LO:TX:a:rj:i:t=Solo	!LO:DY:b:rj	!	!
1C/	.	.	2c/	.	8r	p	8r	p	4.ee\	Be-	1ryy	1ryy	2g/	p	1r	.
.	.	.	.	.	(8G/L	.	(8Gn/L	.	.	.	.	.	.	.	.	.
.	.	.	.	.	8c/	.	8e/	.	.	.	.	.	.	.	.	.
.	.	.	.	.	8G/J	.	8G/J	.	8ee\	-ne-	.	.	.	.	.	.
*	*	*	*	*	*tremolo	*	*tremolo	*	*	*	*	*	*	*	*	*
.	.	.	2e/	.	(8c/L	.	8e/L	.	(8dd\L	-di-	.	.	2g/	.	.	.
.	.	.	.	.	8G/))	.	8G/)	.	8cc\J)	.	.	.	.	.	.	.
.	.	.	.	.	8c/	.	8e/	.	(16b\LL	-ctus	.	.	.	.	.	.
.	.	.	.	.	.	.	.	.	16dd\	.	.	.	.	.	.	.
.	.	.	.	.	8G/))J	.	8G/)J	.	16cc\)	.	.	.	.	.	.	.
.	.	.	.	.	.	.	.	.	16a\JJ	qui	.	.	.	.	.	.
*	*	*	*	*	*Xtremolo	*	*Xtremolo	*	*	*	*	*	*	*	*	*
=34	=34	=34	=34	=34	=34	=34	=34	=34	=34	=34	=34	=34	=34	=34	=34	=34
1BB/	.	.	2.d/ 2.B/	.	8r	.	8r	.	2a\	ve-	1ryy	1ryy	2.fn/	.	1r	.
.	.	.	.	.	(8G/L	.	(8G/L	.	.	.	.	.	.	.	.	.
.	.	.	.	.	8d/	.	8fn/	.	.	.	.	.	.	.	.	.
.	.	.	.	.	8G/J	.	8G/J	.	.	.	.	.	.	.	.	.
*	*	*	*	*	*tremolo	*	*tremolo	*	*	*	*	*	*	*	*	*
.	.	.	.	.	8d/L	.	8f/L	.	4g\	-nit	.	.	.	.	.	.
.	.	.	.	.	8G/)	.	8G/)	.	.	.	.	.	.	.	.	.
.	.	.	4r	.	8d/	.	8f/	.	8.g\	Be-	.	.	4r	.	.	.
.	.	.	.	.	8G/)J	.	8G/)J	.	.	.	.	.	.	.	.	.
.	.	.	.	.	.	.	.	.	16g\	-ne-	.	.	.	.	.	.
*	*	*	*	*	*Xtremolo	*	*Xtremolo	*	*	*	*	*	*	*	*	*
=35	=35	=35	=35	=35	=35	=35	=35	=35	=35	=35	=35	=35	=35	=35	=35	=35
*	*	*	*	*	*rep	*	*rep	*	*	*	*	*	*	*	*	*
1BB/	.	.	1B/	.	8r	.	8r	.	(4.ffn\	-di-	1ryy	1ryy	1g/	.	1r	.
.	.	.	.	.	(8G/L	.	(8G/L	.	.	.	.	.	.	.	.	.
.	.	.	.	.	8d/	.	8fn/	.	.	.	.	.	.	.	.	.
.	.	.	.	.	8G/J	.	8G/J	.	8ee\)	.	.	.	.	.	.	.
*	*	*	*	*	*tremolo	*	*tremolo	*	*	*	*	*	*	*	*	*
.	.	.	.	.	8d/L	.	8f/L	.	(8ff\L	-ctus	.	.	.	.	.	.
.	.	.	.	.	8G/)	.	8G/)	.	8ff#X\J	.	.	.	.	.	.	.
.	.	.	.	.	8d/	.	8f/	.	8gg\)	.	.	.	.	.	.	.
.	.	.	.	.	8G/)J	.	8G/)J	.	8ffn\	qui	.	.	.	.	.	.
*	*	*	*	*	*Xtremolo	*	*Xtremolo	*	*	*	*	*	*	*	*	*
*	*	*	*	*	*Xrep	*	*Xrep	*	*	*	*	*	*	*	*	*
!	!	!	!	!	!	!	!	!	!LO:LB:g=original	!	!	!	!	!	!	!
=36	=36	=36	=36	=36	=36	=36	=36	=36	=36	=36	=36	=36	=36	=36	=36	=36
1C/	.	.	2c/	.	8r	.	8r	.	4dd#X\	ve-	1ryy	1ryy	2g/	.	1r	.
.	.	.	.	.	(8G/L	.	(8G/L	.	.	.	.	.	.	.	.	.
.	.	.	.	.	8c/	.	8e/	.	4ee\	-nit	.	.	.	.	.	.
.	.	.	.	.	8G/J	.	8G/J	.	.	.	.	.	.	.	.	.
*	*	*	*	*	*tremolo	*	*tremolo	*	*	*	*	*	*	*	*	*
.	.	.	2r	.	8c/L	.	8e/L	.	4r	.	.	.	2r	.	.	.
.	.	.	.	.	8G/)	.	8G/)	.	.	.	.	.	.	.	.	.
.	.	.	.	.	8c/	.	8e/	.	8ee\	Be-	.	.	.	.	.	.
.	.	.	.	.	8G/)J	.	8G/)J	.	8ff#\	-ne-	.	.	.	.	.	.
=37	=37	=37	=37	=37	=37	=37	=37	=37	=37	=37	=37	=37	=37	=37	=37	=37
!	!	!	!	!	!	!	!	!	!	!	!	!	!LO:TX:a:rj:t=1	!	!	!
2E/ 2EE/	.	.	8r	.	8r	.	8r	.	2gg\	-di-	1ryy	1ryy	1r	.	1r	.
*	*	*	*tremolo	*	*	*	*	*	*	*	*	*	*	*	*	*
!	!	!	!	!	!	!	!LO:TX:t=P:problem=custos cc jako łamanie systemu	!	!	!	!	!	!	!	!	!
.	.	.	8B-/L	.	8c/L	.	8g/L	.	.	.	.	.	.	.	.	.
.	.	.	8B-/	.	8c/	.	8g/	.	.	.	.	.	.	.	.	.
.	.	.	8B-/J	.	8c/J	.	8g/J	.	.	.	.	.	.	.	.	.
!	!	!	!	!	!	!	!LO:LB:g=original	!	!	!	!	!	!	!	!	!
2E/ 2EE/	.	.	8r	.	8r	.	8r	.	4cc\	-ctus	.	.	.	.	.	.
.	.	.	8B-/L	.	8c/L	.	8g/L	.	.	.	.	.	.	.	.	.
.	.	.	8B-/	.	8c/	.	8g/	.	(8gg\L	qui	.	.	.	.	.	.
.	.	.	8B-/J	.	8c/J	.	8g/J	.	8gg#X\J)	.	.	.	.	.	.	.
*	*	*	*Xtremolo	*	*Xtremolo	*	*Xtremolo	*	*	*	*	*	*	*	*	*
=38	=38	=38	=38	=38	=38	=38	=38	=38	=38	=38	=38	=38	=38	=38	=38	=38
!LO:SIC:s:v=8Fn	!	!LO:DY:b:rj	!LO:SIC:s:v=8fn	!LO:DY:a:rj	!	!LO:DY:b:rj	!	!	!	!	!	!	!	!	!	!
8F#\L	.	f	8f#/L	f	8ffn\L 8a\	f	8aa\L 8a^\	.	(8aa\L	ve-	1ryy	1ryy	8ffn\L	.	1r	.
8C#X\	.	.	8g/ 8B-/	.	8b-X\J	.	8ee^\	.	8ee\J)	.	.	.	8b-X\	.	.	.
!	!	!	!	!	!	!	!LO:SIC:s:v=8ffn	!	!	!	!	!	!	!	!	!
8D\	.	.	8d/ 8A/	.	8dd/L 8fn/	.	8ff#\ 8a^\	.	8ffn\	-nit	.	.	8dd\	.	.	.
8G\J	.	.	8g/J 8G/	.	8b-/J	.	8cc#X\J 8e^\	.	8cc#X\	in	.	.	8g\J	.	.	.
!LO:SIC:s:v=8Fn	!	!	!	!	!	!	!	!	!	!	!	!	!LO:SIC:s:v=8fn	!	!	!
8F#\L	.	.	8d/L 8A/	.	8a/L	.	8dd/L 8d'^>/	.	(8dd\L	no-	.	.	8f#/L	.	.	.
8C#\	.	.	8e/	.	8g/ 8A/	.	8ee/ 8a^>/	.	8ee\J)	.	.	.	8g/	.	.	.
!	!	!	!	!	!	!	!LO:SIC:s:v=8ffn	!	!	!	!	!	!	!	!	!
8D\	.	.	8d/	.	8f/	.	8ff#/ 8a^>/	.	8ff\	-mi-	.	.	8dd/	.	.	.
!LO:SIC:s:v=8Fn	!	!	!	!	!	!	!	!	!	!	!	!	!	!	!	!
8F#\J	.	.	8d/J 8A/	.	8a/J	.	8dd/J 8d^>/	.	8dd\	-ne	.	.	8dd/J	.	.	.
=39	=39	=39	=39	=39	=39	=39	=39	=39	=39	=39	=39	=39	=39	=39	=39	=39
*	*	*	*tremolo	*	*tremolo	*	*tremolo	*	*	*	*	*	*2\right	*	*	*
!	!	!	!	!	!	!	!	!LO:DY:b:rj	!	!	!	!	!	!	!	!
2G/ 2GG/	.	.	32g/ 32G/LLL	.	32cc/ 32e/LLL	.	32ccc\ 32ee\LLL	ff	2ee\	Do-	1ryy	1ryy	2gg\	.	1r	.
.	.	.	32g/ 32G/	.	32cc/ 32e/	.	32ccc\ 32ee\	.	.	.	.	.	.	.	.	.
.	.	.	32g/ 32G/	.	32cc/ 32e/	.	32ccc\ 32ee\	.	.	.	.	.	.	.	.	.
.	.	.	32g/ 32G/	.	32cc/ 32e/	.	32ccc\ 32ee\	.	.	.	.	.	.	.	.	.
.	.	.	32g/ 32G/	.	32cc/ 32e/	.	32ccc\ 32ee\	.	.	.	.	.	.	.	.	.
.	.	.	32g/ 32G/	.	32cc/ 32e/	.	32ccc\ 32ee\	.	.	.	.	.	.	.	.	.
.	.	.	32g/ 32G/	.	32cc/ 32e/	.	32ccc\ 32ee\	.	.	.	.	.	.	.	.	.
.	.	.	32g/ 32G/	.	32cc/ 32e/	.	32ccc\ 32ee\	.	.	.	.	.	.	.	.	.
.	.	.	32g/ 32G/	.	32cc/ 32e/	.	32ccc\ 32ee\	.	.	.	.	.	.	.	.	.
.	.	.	32g/ 32G/	.	32cc/ 32e/	.	32ccc\ 32ee\	.	.	.	.	.	.	.	.	.
.	.	.	32g/ 32G/	.	32cc/ 32e/	.	32ccc\ 32ee\	.	.	.	.	.	.	.	.	.
.	.	.	32g/ 32G/	.	32cc/ 32e/	.	32ccc\ 32ee\	.	.	.	.	.	.	.	.	.
.	.	.	32g/ 32G/	.	32cc/ 32e/	.	32ccc\ 32ee\	.	.	.	.	.	.	.	.	.
.	.	.	32g/ 32G/	.	32cc/ 32e/	.	32ccc\ 32ee\	.	.	.	.	.	.	.	.	.
.	.	.	32g/ 32G/	.	32cc/ 32e/	.	32ccc\ 32ee\	.	.	.	.	.	.	.	.	.
.	.	.	32g/ 32G/JJJ	.	32cc/ 32e/JJJ	.	32ccc\ 32ee\JJJ	.	.	.	.	.	.	.	.	.
2G/ 2GG/	.	.	32g/ 32G/LLL	.	32cc/ 32d/LLL	.	32ccc\ 32dd\LLL	.	(4dd\	-mi-	.	.	2ffn\	.	.	.
.	.	.	32g/ 32G/	.	32cc/ 32d/	.	32ccc\ 32dd\	.	.	.	.	.	.	.	.	.
.	.	.	32g/ 32G/	.	32cc/ 32d/	.	32ccc\ 32dd\	.	.	.	.	.	.	.	.	.
.	.	.	32g/ 32G/	.	32cc/ 32d/	.	32ccc\ 32dd\	.	.	.	.	.	.	.	.	.
.	.	.	32g/ 32G/	.	32cc/ 32d/	.	32ccc\ 32dd\	.	.	.	.	.	.	.	.	.
.	.	.	32g/ 32G/	.	32cc/ 32d/	.	32ccc\ 32dd\	.	.	.	.	.	.	.	.	.
.	.	.	32g/ 32G/	.	32cc/ 32d/	.	32ccc\ 32dd\	.	.	.	.	.	.	.	.	.
.	.	.	32g/ 32G/	.	32cc/ 32d/JJJ	.	32ccc\ 32dd\JJJ	.	.	.	.	.	.	.	.	.
.	.	.	32g/ 32G/	.	32b/ 32d/LLL	.	32bb\ 32dd\LLL	.	4gg\)	.	.	.	.	.	.	.
.	.	.	32g/ 32G/	.	32b/ 32d/	.	32bb\ 32dd\	.	.	.	.	.	.	.	.	.
.	.	.	32g/ 32G/	.	32b/ 32d/	.	32bb\ 32dd\	.	.	.	.	.	.	.	.	.
.	.	.	32g/ 32G/	.	32b/ 32d/	.	32bb\ 32dd\	.	.	.	.	.	.	.	.	.
.	.	.	32g/ 32G/	.	32b/ 32d/	.	32bb\ 32dd\	.	.	.	.	.	.	.	.	.
.	.	.	32g/ 32G/	.	32b/ 32d/	.	32bb\ 32dd\	.	.	.	.	.	.	.	.	.
.	.	.	32g/ 32G/	.	32b/ 32d/	.	32bb\ 32dd\	.	.	.	.	.	.	.	.	.
.	.	.	32g/ 32G/JJJ	.	32b/ 32d/JJJ	.	32bb\ 32dd\JJJ	.	.	.	.	.	.	.	.	.
*	*	*	*Xtremolo	*	*Xtremolo	*	*Xtremolo	*	*	*	*	*	*	*	*	*
!	!	!	!	!	!LO:LB:g=original	!	!	!	!	!	!	!	!LO:LB:g=original	!	!	!
=40||	=40||	=40||	=40||	=40||	=40||	=40||	=40||	=40||	=40||	=40||	=40||	=40||	=40||	=40||	=40||	=40||
*k[]	*	*	*k[]	*	*k[]	*	*k[]	*	*k[]	*	*k[]	*k[]	*k[]	*	*k[]	*
*C:	*	*	*C:	*	*C:	*	*C:	*	*C:	*	*C:	*C:	*C:	*	*C:	*
*M4/4	*	*	*M4/4	*	*M4/4	*	*M4/4	*	*M4/4	*	*M4/4	*M4/4	*M4/4	*	*M4/4	*
*met(c)	*	*	*met(c)	*	*met(c)	*	*met(c)	*	*met(c)	*	*met(c)	*met(c)	*met(c)	*	*met(c)	*
!LO:TX:a:rj:i:t=tasto Solo	!	!	!	!	!	!	!	!	!	!	!	!	!	!	!LO:TX:a:rj:t=4	!
!LO:TX:a:rj:i:t=piu mosso.	!	!	!LO:TX:a:rj:i:t=piu mosso	!	!LO:TX:a:rj:i:t=piu mosso	!	!LO:TX:a:rj:i:t=piu mosso.	!	!	!	!	!	!LO:TX:a:rj:i:t=piu mosso	!	!LO:TX:a:rj:i:t=piu mosso	!
!LO:LB:g=original	!	!	!	!	!	!	!	!	!	!	!	!	!	!	!	!
4C/	.	.	4g/ 4G/	.	4cc/ 4e/	.	4ccc\	.	4cc\	-ni	1ryy	1ryy	4ee\	f	00r	.
!	!	!	!	!	!	!LO:DY:b:rj	!	!	!	!	!	!	!	!	!	!
4C/	.	.	4c/	.	4c/	f	4cc\	.	(4cc\	o-	.	.	4cc\	.	.	.
4D/	.	.	4d/	.	4d/	.	4dd\	.	4dd\	.	.	.	4dd\	.	.	.
4E/	.	.	4e/	.	4e/	.	4ee\	.	4ee\)	.	.	.	4ee\	.	.	.
=41	=41	=41	=41	=41	=41	=41	=41	=41	=41	=41	=41	=41	=41	=41	=41	=41
4F\	.	.	4f/	.	4f/	.	4ff\	.	(4ff\	-san-	1ryy	1ryy	4ff\	.	.	.
!	!	!	!LO:TX:t=P:problem=custos a jako łamanie systemu	!	!	!	!	!	!	!	!	!	!	!	!	!
4D\	.	.	4d/	.	4d/	.	4dd\	.	4dd\	.	.	.	4dd\	.	.	.
!	!	!	!LO:LB:g=original	!	!	!	!	!	!	!	!	!	!	!	!	!
4G\	.	.	4g/	.	4g/	.	4gg\	.	4gg\)	.	.	.	4gg\	.	.	.
4F\	.	.	4f/	.	4f/	.	4ff\	.	4ff'\	-na	.	.	4ff\	.	.	.
=42	=42	=42	=42	=42	=42	=42	=42	=42	=42	=42	=42	=42	=42	=42	=42	=42
4E\	.	.	4e/	.	4e/	.	4ee\	.	(4ee\	in	1ryy	1ryy	4ee\	.	.	.
4C\	.	.	4c/	.	4c/	.	4cc\	.	4cc\)	.	.	.	4cc\	.	.	.
4D\	.	.	4d/	.	4d/	.	4dd\	.	(4dd\	ex-	.	.	4dd\	.	.	.
4E\	.	.	4e/	.	4e/	.	4ee\	.	4ee\)	.	.	.	4ee\	.	.	.
=43	=43	=43	=43	=43	=43	=43	=43	=43	=43	=43	=43	=43	=43	=43	=43	=43
!	!	!	!	!	!	!	!	!	!LO:SIC:s:v=-cel-	!	!	!	!	!	!	!
4F\	.	.	4f/	.	4f/	.	4ff\	.	(4ff\	-cael-	1ryy	1ryy	4ff\	.	.	.
4D\	.	.	4d/	.	4d/	.	4dd\	.	4dd\	.	.	.	4dd\	.	.	.
4G\	.	.	4g/	.	4g/	.	4gg\	.	4gg\	.	.	.	4gg\	.	.	.
4F\	.	.	4f/	.	4f/	.	4ff\	.	4ff\)	.	.	.	4ff\	.	.	.
=44	=44	=44	=44	=44	=44	=44	=44	=44	=44	=44	=44	=44	=44	=44	=44	=44
4E\	.	.	4e/	.	4e/	.	4ee\	.	4ee'\	-sis	1ryy	1ryy	4ee\	.	4r	.
*	*	*	*	*	*	*	*tremolo	*	*	*	*	*	*	*	*	*
4C\	5 3	.	4e/ 4c/	.	4g/ 4G/	.	16ccc\LL	.	(4cc\	o-	.	.	4cc\	.	4ccc\	.
.	.	.	.	.	.	.	16ccc\	.	.	.	.	.	.	.	.	.
.	.	.	.	.	.	.	16ccc\	.	.	.	.	.	.	.	.	.
.	.	.	.	.	.	.	16ccc\JJ	.	.	.	.	.	.	.	.	.
4D\	6	.	4f/ 4A/	.	4g/ 4B/	.	16bb\LL	.	4dd\	.	.	.	4b\	.	4bb\	.
.	.	.	.	.	.	.	16bb\	.	.	.	.	.	.	.	.	.
.	.	.	.	.	.	.	16bb\	.	.	.	.	.	.	.	.	.
.	.	.	.	.	.	.	16bb\JJ	.	.	.	.	.	.	.	.	.
4E\	6 -5	.	4c/	.	4g/ 4B-X/	.	16bb-X\LL	.	4ee\)	.	.	.	4b-X\	.	4bb-X\	.
.	.	.	.	.	.	.	16bb-X\	.	.	.	.	.	.	.	.	.
.	.	.	.	.	.	.	16bb-X\	.	.	.	.	.	.	.	.	.
.	.	.	.	.	.	.	16bb-X\JJ	.	.	.	.	.	.	.	.	.
!	!	!	!	!	!	!	!	!	!LO:LB:g=original	!	!	!	!	!	!	!
=45	=45	=45	=45	=45	=45	=45	=45	=45	=45	=45	=45	=45	=45	=45	=45	=45
4F\	5 3	.	4c/	.	4f/ 4A/	.	4aa\	.	(4ff\	-san-	1ryy	1ryy	4a\	.	4aa\	.
4D\	#6 #3	.	4f#X/ 4A/	.	4a/ 4d/	.	16ddd\LL	.	4dd\	.	.	.	4dd\	.	4ddd\	.
.	.	.	.	.	.	.	16ddd\	.	.	.	.	.	.	.	.	.
.	.	.	.	.	.	.	16ddd\	.	.	.	.	.	.	.	.	.
.	.	.	.	.	.	.	16ddd\JJ	.	.	.	.	.	.	.	.	.
4E\	4 3	.	4c#X/	.	4g/ 4A/	.	16ccc#X\LL	.	4ee\)	.	.	.	4cc#X\	.	4ccc#X\	.
.	.	.	.	.	.	.	16ccc#X\	.	.	.	.	.	.	.	.	.
.	.	.	.	.	.	.	16ccc#X\	.	.	.	.	.	.	.	.	.
.	.	.	.	.	.	.	16ccc#X\JJ	.	.	.	.	.	.	.	.	.
4F#X\	6 5	.	4c/	.	4a/ 4d/	.	16cccn\LL	.	4ff#X'\	-na	.	.	4ccn\	.	4cccn\	.
.	.	.	.	.	.	.	16cccn\	.	.	.	.	.	.	.	.	.
.	.	.	.	.	.	.	16cccn\	.	.	.	.	.	.	.	.	.
.	.	.	.	.	.	.	16cccn\JJ	.	.	.	.	.	.	.	.	.
=46	=46	=46	=46	=46	=46	=46	=46	=46	=46	=46	=46	=46	=46	=46	=46	=46
4G\	5 3	.	4d/ 4B/	.	4g/ 4G/	.	4bb\	.	4gg'\	in	1ryy	1ryy	4b\	.	4bb\	.
4GG/	_ _	.	4d/ 4B/	.	4g/ 4G/	.	16gg\LL	.	4g\	ex-	.	.	4gg\	.	4ggg\	.
.	.	.	.	.	.	.	16gg\	.	.	.	.	.	.	.	.	.
.	.	.	.	.	.	.	16gg\	.	.	.	.	.	.	.	.	.
.	.	.	.	.	.	.	16gg\JJ	.	.	.	.	.	.	.	.	.
!	!	!	!	!	!	!	!	!	!LO:SIC:s:v=-cel-	!	!	!	!	!	!	!
4AA/	#6 3	.	4d/ 4c/	.	4f#X/ 4A/	.	16ff#X\LL	.	4a\	-cael-	.	.	4aa\	.	4fff#X\	.
.	.	.	.	.	.	.	16ff#X\	.	.	.	.	.	.	.	.	.
.	.	.	.	.	.	.	16ff#X\	.	.	.	.	.	.	.	.	.
.	.	.	.	.	.	.	16ff#X\JJ	.	.	.	.	.	.	.	.	.
4BB/	6 5	.	4d/	.	4fn/ 4G/	.	16ffn\LL	.	4b\	-sis	.	.	4bb\	.	4fffn\	.
.	.	.	.	.	.	.	16ffn\	.	.	.	.	.	.	.	.	.
.	.	.	.	.	.	.	16ffn\	.	.	.	.	.	.	.	.	.
.	.	.	.	.	.	.	16ffn\JJ	.	.	.	.	.	.	.	.	.
=47	=47	=47	=47	=47	=47	=47	=47	=47	=47	=47	=47	=47	=47	=47	=47	=47
*	*	*	*tremolo	*	*	*	*	*	*	*	*	*	*	*	*	*
2C/	5 3	.	32c/LLL	.	2e/ 2G/	.	16ee\LL	.	2cc\	in	1ryy	1ryy	4ccc\	.	4eee\	.
.	.	.	32c/	.	.	.	.	.	.	.	.	.	.	.	.	.
.	.	.	32c/	.	.	.	16ee\	.	.	.	.	.	.	.	.	.
.	.	.	32c/	.	.	.	.	.	.	.	.	.	.	.	.	.
.	.	.	32c/	.	.	.	16ee\	.	.	.	.	.	.	.	.	.
.	.	.	32c/	.	.	.	.	.	.	.	.	.	.	.	.	.
.	.	.	32c/	.	.	.	16ee\JJ	.	.	.	.	.	.	.	.	.
.	.	.	32c/	.	.	.	.	.	.	.	.	.	.	.	.	.
.	.	.	32c/	.	.	.	16ccc\LL	.	.	.	.	.	4cc\	.	4ccc\	.
.	.	.	32c/	.	.	.	.	.	.	.	.	.	.	.	.	.
.	.	.	32c/	.	.	.	16ccc\	.	.	.	.	.	.	.	.	.
.	.	.	32c/	.	.	.	.	.	.	.	.	.	.	.	.	.
.	.	.	32c/	.	.	.	16ccc\	.	.	.	.	.	.	.	.	.
.	.	.	32c/	.	.	.	.	.	.	.	.	.	.	.	.	.
.	.	.	32c/	.	.	.	16ccc\JJ	.	.	.	.	.	.	.	.	.
.	.	.	32c/JJJ	.	.	.	.	.	.	.	.	.	.	.	.	.
2F/ 2FF/	6	.	32d/LLL	.	2f/ 2A/	.	16aa\LL	.	2ff\	ex-	.	.	4a\	.	4aa\	.
.	.	.	32d/	.	.	.	.	.	.	.	.	.	.	.	.	.
.	.	.	32d/	.	.	.	16aa\	.	.	.	.	.	.	.	.	.
.	.	.	32d/	.	.	.	.	.	.	.	.	.	.	.	.	.
.	.	.	32d/	.	.	.	16aa\	.	.	.	.	.	.	.	.	.
.	.	.	32d/	.	.	.	.	.	.	.	.	.	.	.	.	.
.	.	.	32d/	.	.	.	16aa\JJ	.	.	.	.	.	.	.	.	.
.	.	.	32d/	.	.	.	.	.	.	.	.	.	.	.	.	.
.	.	.	32d/	.	.	.	16ddd\LL	.	.	.	.	.	4dd\	.	4ddd\	.
.	.	.	32d/	.	.	.	.	.	.	.	.	.	.	.	.	.
.	.	.	32d/	.	.	.	16ddd\	.	.	.	.	.	.	.	.	.
.	.	.	32d/	.	.	.	.	.	.	.	.	.	.	.	.	.
.	.	.	32d/	.	.	.	16ddd\	.	.	.	.	.	.	.	.	.
.	.	.	32d/	.	.	.	.	.	.	.	.	.	.	.	.	.
.	.	.	32d/	.	.	.	16ddd\JJ	.	.	.	.	.	.	.	.	.
.	.	.	32d/JJJ	.	.	.	.	.	.	.	.	.	.	.	.	.
=48	=48	=48	=48	=48	=48	=48	=48	=48	=48	=48	=48	=48	=48	=48	=48	=48
!	!	!	!	!	!	!	!	!	!LO:SIC:s:v=-cel-	!	!	!	!	!	!	!
2G/ 2GG/	6 4	.	32c/LLL	.	2e/ 2G/	.	16gg\LL	.	(2gg\	-cael-	1ryy	1ryy	4g/	.	4gg\	.
.	.	.	32c/	.	.	.	.	.	.	.	.	.	.	.	.	.
.	.	.	32c/	.	.	.	16gg\	.	.	.	.	.	.	.	.	.
.	.	.	32c/	.	.	.	.	.	.	.	.	.	.	.	.	.
.	.	.	32c/	.	.	.	16gg\	.	.	.	.	.	.	.	.	.
.	.	.	32c/	.	.	.	.	.	.	.	.	.	.	.	.	.
.	.	.	32c/	.	.	.	16gg\JJ	.	.	.	.	.	.	.	.	.
.	.	.	32c/	.	.	.	.	.	.	.	.	.	.	.	.	.
!	!	!	!	!	!	!	!LO:TX:t=P:problem=custos cc jako łamanie systemu	!	!	!	!	!	!LO:SIC:s:v=4cc	!	!	!
.	.	.	32c/	.	.	.	16ccc\LL	.	.	.	.	.	4dd/	.	4ccc\	.
.	.	.	32c/	.	.	.	.	.	.	.	.	.	.	.	.	.
.	.	.	32c/	.	.	.	16ccc\	.	.	.	.	.	.	.	.	.
.	.	.	32c/	.	.	.	.	.	.	.	.	.	.	.	.	.
.	.	.	32c/	.	.	.	16ccc\	.	.	.	.	.	.	.	.	.
.	.	.	32c/	.	.	.	.	.	.	.	.	.	.	.	.	.
.	.	.	32c/	.	.	.	16ccc\JJ	.	.	.	.	.	.	.	.	.
.	.	.	32c/JJJ	.	.	.	.	.	.	.	.	.	.	.	.	.
!	!	!	!	!	!	!	!LO:LB:g=original	!	!	!	!	!	!	!	!	!
2G/ 2GG/	7	.	32d/ 32B/LLL	.	2f/ 2G/	.	16gg\LL	.	2g\)	.	.	.	4g/	.	4gg\	.
.	.	.	32d/ 32B/	.	.	.	.	.	.	.	.	.	.	.	.	.
.	.	.	32d/ 32B/	.	.	.	16gg\	.	.	.	.	.	.	.	.	.
.	.	.	32d/ 32B/	.	.	.	.	.	.	.	.	.	.	.	.	.
.	.	.	32d/ 32B/	.	.	.	16gg\	.	.	.	.	.	.	.	.	.
.	.	.	32d/ 32B/	.	.	.	.	.	.	.	.	.	.	.	.	.
.	.	.	32d/ 32B/	.	.	.	16gg\JJ	.	.	.	.	.	.	.	.	.
.	.	.	32d/ 32B/	.	.	.	.	.	.	.	.	.	.	.	.	.
.	.	.	32d/ 32B/	.	.	.	16bb\LL	.	.	.	.	.	4b/	.	4bb\	.
.	.	.	32d/ 32B/	.	.	.	.	.	.	.	.	.	.	.	.	.
.	.	.	32d/ 32B/	.	.	.	16bb\	.	.	.	.	.	.	.	.	.
.	.	.	32d/ 32B/	.	.	.	.	.	.	.	.	.	.	.	.	.
.	.	.	32d/ 32B/	.	.	.	16bb\	.	.	.	.	.	.	.	.	.
.	.	.	32d/ 32B/	.	.	.	.	.	.	.	.	.	.	.	.	.
.	.	.	32d/ 32B/	.	.	.	16bb\JJ	.	.	.	.	.	.	.	.	.
.	.	.	32d/ 32B/JJJ	.	.	.	.	.	.	.	.	.	.	.	.	.
*	*	*	*Xtremolo	*	*	*	*Xtremolo	*	*	*	*	*	*	*	*	*
=49	=49	=49	=49	=49	=49	=49	=49	=49	=49	=49	=49	=49	=49	=49	=49	=49
4C/	5 3	.	4c/	.	4e/ 4G/	.	4ccc\	.	4cc\	-sis	1ryy	1ryy	4cc\	.	4ccc\	.
!LO:TX:a:rj:i:t=tasto Solo	!	!	!	!	!	!	!	!	!	!	!	!	!	!	!	!
4C/	.	.	4c/	.	4c/	.	4cc\	.	(4cc\	o-	.	.	4cc\	.	4r	.
4D/	.	.	4d/	.	4d/	.	4dd\	.	4dd\	.	.	.	4dd\	.	2r	.
4E/	.	.	4e/	.	4e/	.	4ee\	.	4ee\)	.	.	.	4ee\	.	.	.
=50	=50	=50	=50	=50	=50	=50	=50	=50	=50	=50	=50	=50	=50	=50	=50	=50
!	!	!	!	!	!	!	!	!	!	!	!	!	!	!	!LO:TX:a:rj:t=3	!
4F\	.	.	4f/	.	4f/	.	4ff\	.	(4ff\	-san-	1ryy	1ryy	4ff\	.	0r	.
4D\	.	.	4d/	.	4d/	.	4dd\	.	4dd\	.	.	.	4dd\	.	.	.
4G\	.	.	4g/	.	4g/	.	4gg\	.	4gg\)	.	.	.	4gg\	.	.	.
4F\	.	.	4f/	.	4f/	.	4ff\	.	4ff'\	-na	.	.	4ff\	.	.	.
=51	=51	=51	=51	=51	=51	=51	=51	=51	=51	=51	=51	=51	=51	=51	=51	=51
4E\	.	.	4e/	.	4e/	.	4ee\	.	(4ee\	in	1ryy	1ryy	4ee\	.	.	.
4C\	.	.	4c/	.	4c/	.	4cc\	.	4cc\)	.	.	.	4cc\	.	.	.
4D\	.	.	4d/	.	4d/	.	4dd\	.	(4dd\	ex-	.	.	4dd\	.	.	.
4E\	.	.	4e/	.	4e/	.	4ee\	.	4ee\)	.	.	.	4ee\	.	.	.
!	!	!	!	!	!	!	!	!	!	!	!	!	!LO:LB:g=original	!	!	!
=52	=52	=52	=52	=52	=52	=52	=52	=52	=52	=52	=52	=52	=52	=52	=52	=52
!	!	!	!	!	!	!	!	!	!LO:SIC:s:v=-cel-	!	!	!	!	!	!	!
4F\	.	.	4f/	.	4f/	.	4ff\	.	(4ff\	-cael-	1ryy	1ryy	4ff\	.	1r	.
4D\	.	.	4d/	.	4d/	.	4dd\	.	4dd\	.	.	.	4dd\	.	.	.
4G\	.	.	4g/	.	4g/	.	4gg\	.	4gg\	.	.	.	4gg\	.	.	.
4F\	.	.	4f/	.	4f/	.	4ff\	.	4ff\)	.	.	.	4ff\	.	.	.
!	!	!	!	!	!	!	!	!	!	!	!	!	!	!	!LO:LB:g=original	!
=53	=53	=53	=53	=53	=53	=53	=53	=53	=53	=53	=53	=53	=53	=53	=53	=53
4E\	.	.	4e/ 4c/	.	4e/	.	4ee\	.	4ee\	-sis	1ryy	1ryy	4ee\	.	4r	.
*	*	*	*	*	*	*	*tremolo	*	*	*	*	*	*	*	*	*
4C\	5 3	.	4e/ 4c/	.	4g/ 4G/	.	16ccc\LL	.	(4cc\	o-	.	.	4cc\	.	4ccc\	.
.	.	.	.	.	.	.	16ccc\	.	.	.	.	.	.	.	.	.
.	.	.	.	.	.	.	16ccc\	.	.	.	.	.	.	.	.	.
.	.	.	.	.	.	.	16ccc\JJ	.	.	.	.	.	.	.	.	.
4D\	6	.	4f/ 4A/	.	4g/ 4B/	.	16bb\LL	.	4dd\	.	.	.	4b\	.	4bb\	.
.	.	.	.	.	.	.	16bb\	.	.	.	.	.	.	.	.	.
.	.	.	.	.	.	.	16bb\	.	.	.	.	.	.	.	.	.
.	.	.	.	.	.	.	16bb\JJ	.	.	.	.	.	.	.	.	.
4E\	6 -5	.	4c/	.	4g/ 4B-X/	.	16bb-X\LL	.	4ee\)	.	.	.	4b-X\	.	4bb-X\	.
.	.	.	.	.	.	.	16bb-X\	.	.	.	.	.	.	.	.	.
.	.	.	.	.	.	.	16bb-X\	.	.	.	.	.	.	.	.	.
.	.	.	.	.	.	.	16bb-X\JJ	.	.	.	.	.	.	.	.	.
=54	=54	=54	=54	=54	=54	=54	=54	=54	=54	=54	=54	=54	=54	=54	=54	=54
4F\	5 3	.	4c/	.	4f/ 4A/	.	4aa\	.	(4ff\	-san-	1ryy	1ryy	4a\	.	4aa\	.
4D\	#6 #3	.	4f#X/ 4A/	.	4a/ 4d/	.	16ddd\LL	.	4dd\	.	.	.	4dd\	.	4ddd\	.
.	.	.	.	.	.	.	16ddd\	.	.	.	.	.	.	.	.	.
.	.	.	.	.	.	.	16ddd\	.	.	.	.	.	.	.	.	.
.	.	.	.	.	.	.	16ddd\JJ	.	.	.	.	.	.	.	.	.
4E\	4 3	.	4c#X/	.	4g/ 4A/	.	16ccc#X\LL	.	4ee\)	.	.	.	4cc#X\	.	4ccc#X\	.
.	.	.	.	.	.	.	16ccc#X\	.	.	.	.	.	.	.	.	.
.	.	.	.	.	.	.	16ccc#X\	.	.	.	.	.	.	.	.	.
.	.	.	.	.	.	.	16ccc#X\JJ	.	.	.	.	.	.	.	.	.
4F#X\	6 5	.	4c/	.	4a/ 4d/	.	16cccn\LL	.	4ff#X\	-na	.	.	4ccn\	.	4cccn\	.
.	.	.	.	.	.	.	16cccn\	.	.	.	.	.	.	.	.	.
.	.	.	.	.	.	.	16cccn\	.	.	.	.	.	.	.	.	.
.	.	.	.	.	.	.	16cccn\JJ	.	.	.	.	.	.	.	.	.
!	!	!	!	!	!LO:LB:g=original	!	!	!	!	!	!	!	!	!	!	!
=55	=55	=55	=55	=55	=55	=55	=55	=55	=55	=55	=55	=55	=55	=55	=55	=55
4G\	5 3	.	4d/ 4B/	.	4g/ 4G/	.	4bb\	.	4gg\	in	1ryy	1ryy	4b\	.	4bb\	.
4GG/	_ _	.	4d/ 4B/	.	4g/ 4G/	.	16gg\LL	.	4g\	ex-	.	.	4gg\	.	4ggg\	.
.	.	.	.	.	.	.	16gg\	.	.	.	.	.	.	.	.	.
.	.	.	.	.	.	.	16gg\	.	.	.	.	.	.	.	.	.
.	.	.	.	.	.	.	16gg\JJ	.	.	.	.	.	.	.	.	.
!	!	!	!	!	!	!	!	!	!LO:SIC:s:v=-cel-	!	!	!	!	!	!	!
4AA/	#6 3	.	4d/ 4c/	.	4f#X/ 4A/	.	16ff#X\LL	.	4a\	-cael-	.	.	4aa\	.	4fff#X\	.
.	.	.	.	.	.	.	16ff#X\	.	.	.	.	.	.	.	.	.
.	.	.	.	.	.	.	16ff#X\	.	.	.	.	.	.	.	.	.
.	.	.	.	.	.	.	16ff#X\JJ	.	.	.	.	.	.	.	.	.
4BB/	6 5	.	4d/	.	4fn/ 4G/	.	16ffn\LL	.	4b\	-sis	.	.	4bb\	.	4fffn\	.
.	.	.	.	.	.	.	16ffn\	.	.	.	.	.	.	.	.	.
.	.	.	.	.	.	.	16ffn\	.	.	.	.	.	.	.	.	.
.	.	.	.	.	.	.	16ffn\JJ	.	.	.	.	.	.	.	.	.
!LO:LB:g=original	!	!	!	!	!	!	!	!	!	!	!	!	!	!	!	!
=56	=56	=56	=56	=56	=56	=56	=56	=56	=56	=56	=56	=56	=56	=56	=56	=56
*	*	*	*tremolo	*	*tremolo	*	*	*	*	*	*	*	*	*	*	*
2C/	5 3	.	32c/LLL	.	16e/ 16G/LL	.	16ee\LL	.	2cc\	in	1ryy	1ryy	4ccc\	.	4eee\	.
.	.	.	32c/	.	.	.	.	.	.	.	.	.	.	.	.	.
.	.	.	32c/	.	16e/ 16G/	.	16ee\	.	.	.	.	.	.	.	.	.
.	.	.	32c/	.	.	.	.	.	.	.	.	.	.	.	.	.
.	.	.	32c/	.	16e/ 16G/	.	16ee\	.	.	.	.	.	.	.	.	.
.	.	.	32c/	.	.	.	.	.	.	.	.	.	.	.	.	.
.	.	.	32c/	.	16e/ 16G/	.	16ee\JJ	.	.	.	.	.	.	.	.	.
.	.	.	32c/	.	.	.	.	.	.	.	.	.	.	.	.	.
.	.	.	32c/	.	16e/ 16G/	.	16ccc\LL	.	.	.	.	.	4cc\	.	4ccc\	.
.	.	.	32c/	.	.	.	.	.	.	.	.	.	.	.	.	.
.	.	.	32c/	.	16e/ 16G/	.	16ccc\	.	.	.	.	.	.	.	.	.
.	.	.	32c/	.	.	.	.	.	.	.	.	.	.	.	.	.
.	.	.	32c/	.	16e/ 16G/	.	16ccc\	.	.	.	.	.	.	.	.	.
.	.	.	32c/	.	.	.	.	.	.	.	.	.	.	.	.	.
.	.	.	32c/	.	16e/ 16G/JJ	.	16ccc\JJ	.	.	.	.	.	.	.	.	.
.	.	.	32c/JJJ	.	.	.	.	.	.	.	.	.	.	.	.	.
2F/ 2FF/	6 3	.	32d/LLL	.	16f/ 16A/LL	.	16aa\LL	.	2ff\	ex-	.	.	4a\	.	4aa\	.
.	.	.	32d/	.	.	.	.	.	.	.	.	.	.	.	.	.
.	.	.	32d/	.	16f/ 16A/	.	16aa\	.	.	.	.	.	.	.	.	.
.	.	.	32d/	.	.	.	.	.	.	.	.	.	.	.	.	.
.	.	.	32d/	.	16f/ 16A/	.	16aa\	.	.	.	.	.	.	.	.	.
.	.	.	32d/	.	.	.	.	.	.	.	.	.	.	.	.	.
.	.	.	32d/	.	16f/ 16A/	.	16aa\JJ	.	.	.	.	.	.	.	.	.
.	.	.	32d/	.	.	.	.	.	.	.	.	.	.	.	.	.
.	.	.	32d/	.	16f/ 16A/	.	16ddd\LL	.	.	.	.	.	4dd\	.	4ddd\	.
.	.	.	32d/	.	.	.	.	.	.	.	.	.	.	.	.	.
.	.	.	32d/	.	16f/ 16A/	.	16ddd\	.	.	.	.	.	.	.	.	.
.	.	.	32d/	.	.	.	.	.	.	.	.	.	.	.	.	.
.	.	.	32d/	.	16f/ 16A/	.	16ddd\	.	.	.	.	.	.	.	.	.
.	.	.	32d/	.	.	.	.	.	.	.	.	.	.	.	.	.
.	.	.	32d/	.	16f/ 16A/JJ	.	16ddd\JJ	.	.	.	.	.	.	.	.	.
.	.	.	32d/JJJ	.	.	.	.	.	.	.	.	.	.	.	.	.
!	!	!	!	!	!	!	!	!	!LO:LB:g=original	!	!	!	!	!	!	!
=57	=57	=57	=57	=57	=57	=57	=57	=57	=57	=57	=57	=57	=57	=57	=57	=57
!	!	!	!	!	!	!	!	!	!LO:SIC:s:v=-cel-	!	!	!	!	!	!	!
2G/ 2GG/	6 4	.	32c/LLL	.	16e/ 16G/LL	.	16gg\LL	.	(2gg\	-cael-	1ryy	1ryy	4g/	.	4gg\	.
.	.	.	32c/	.	.	.	.	.	.	.	.	.	.	.	.	.
.	.	.	32c/	.	16e/ 16G/	.	16gg\	.	.	.	.	.	.	.	.	.
.	.	.	32c/	.	.	.	.	.	.	.	.	.	.	.	.	.
.	.	.	32c/	.	16e/ 16G/	.	16gg\	.	.	.	.	.	.	.	.	.
.	.	.	32c/	.	.	.	.	.	.	.	.	.	.	.	.	.
.	.	.	32c/	.	16e/ 16G/	.	16gg\JJ	.	.	.	.	.	.	.	.	.
.	.	.	32c/	.	.	.	.	.	.	.	.	.	.	.	.	.
.	.	.	32c/	.	16e/ 16G/	.	16ccc\LL	.	.	.	.	.	4cc/	.	4ccc\	.
.	.	.	32c/	.	.	.	.	.	.	.	.	.	.	.	.	.
.	.	.	32c/	.	16e/ 16G/	.	16ccc\	.	.	.	.	.	.	.	.	.
.	.	.	32c/	.	.	.	.	.	.	.	.	.	.	.	.	.
.	.	.	32c/	.	16e/ 16G/	.	16ccc\	.	.	.	.	.	.	.	.	.
.	.	.	32c/	.	.	.	.	.	.	.	.	.	.	.	.	.
.	.	.	32c/	.	16e/ 16G/JJ	.	16ccc\JJ	.	.	.	.	.	.	.	.	.
.	.	.	32c/JJJ	.	.	.	.	.	.	.	.	.	.	.	.	.
!	!	!	!	!	!LO:SIC:n=2:s=:v:2G	!	!	!	!	!	!	!	!	!	!	!
2G/ 2GG/	7	.	32d/ 32B/LLL	.	16f/ 16A/LL	.	16gg\LL	.	2g\)	.	.	.	4g/	.	4gg\	.
.	.	.	32d/ 32B/	.	.	.	.	.	.	.	.	.	.	.	.	.
.	.	.	32d/ 32B/	.	16f/ 16A/	.	16gg\	.	.	.	.	.	.	.	.	.
.	.	.	32d/ 32B/	.	.	.	.	.	.	.	.	.	.	.	.	.
.	.	.	32d/ 32B/	.	16f/ 16A/	.	16gg\	.	.	.	.	.	.	.	.	.
.	.	.	32d/ 32B/	.	.	.	.	.	.	.	.	.	.	.	.	.
.	.	.	32d/ 32B/	.	16f/ 16A/	.	16gg\JJ	.	.	.	.	.	.	.	.	.
.	.	.	32d/ 32B/	.	.	.	.	.	.	.	.	.	.	.	.	.
.	.	.	32d/ 32B/	.	16f/ 16A/	.	16bb\LL	.	.	.	.	.	4b/	.	4bb\	.
.	.	.	32d/ 32B/	.	.	.	.	.	.	.	.	.	.	.	.	.
.	.	.	32d/ 32B/	.	16f/ 16A/	.	16bb\	.	.	.	.	.	.	.	.	.
.	.	.	32d/ 32B/	.	.	.	.	.	.	.	.	.	.	.	.	.
.	.	.	32d/ 32B/	.	16f/ 16A/	.	16bb\	.	.	.	.	.	.	.	.	.
.	.	.	32d/ 32B/	.	.	.	.	.	.	.	.	.	.	.	.	.
.	.	.	32d/ 32B/	.	16f/ 16A/JJ	.	16bb\JJ	.	.	.	.	.	.	.	.	.
.	.	.	32d/ 32B/JJJ	.	.	.	.	.	.	.	.	.	.	.	.	.
*	*	*	*Xtremolo	*	*Xtremolo	*	*Xtremolo	*	*	*	*	*	*	*	*	*
=58	=58	=58	=58	=58	=58	=58	=58	=58	=58	=58	=58	=58	=58	=58	=58	=58
4C/	5 3	.	4c/	.	4e/ 4G/	.	4ccc\	.	4cc\	-sis.	1ryy	1ryy	4cc\	.	4ccc\	.
4r	.	.	4r	.	4r	.	4r	.	4r	.	.	.	4r	.	4r	.
!LO:TX:a:i:t=Solo	!	!	!	!	!	!	!	!	!	!	!	!	!	!	!	!
4.C/	.	.	4.c/ 4.C/	.	4.c/	.	4.c/	.	2r	.	.	.	2r	.	2r	.
!	!	!	!	!	!	!	!LO:SIC:s:v=8c	!	!	!	!	!	!	!	!	!
8C/	.	.	8c/ 8C/	.	8c/	.	8d/	.	.	.	.	.	.	.	.	.
=59	=59	=59	=59	=59	=59	=59	=59	=59	=59	=59	=59	=59	=59	=59	=59	=59
!	!	!	!LO:SIC:s:v=2c	!	!	!	!	!	!	!	!	!	!	!	!	!
2C;</	.	.	2A/ 2C/	.	2c/	.	2c/	.	1r;	.	1ryy	1ryy	1r;	.	1r;	.
2r	.	.	2r;	.	2r	.	2r;	.	.	.	.	.	.	.	.	.
==	==	==	==	==	==	==	==	==	==	==	==	==	==	==	==	==
*-	*-	*-	*-	*-	*-	*-	*-	*-	*-	*-	*-	*-	*-	*-	*-	*-
!!!system-decoration: [(s1,s2)][(s3,s4)]s5[(s6,s7,s8)]s9
!!!RDF**kern: > = above
!!!RDF**kern: < = below
!!!ENC: Andrzej Borzym
!!!END: 2020-10-07
!!!ENC: Leszek Kubiak
!!!END: 2022-01-04
!!!YEC: Copyright 2022 Narodowy Instytut Fryderyka Chopina (https://polishscores.org)
!!!YEM: License CC-BY-4.0 (https://creativecommons.org/licenses/by/4.0)
